assets/icons/qvision/gesture.svg

<svg width="24" height="24" viewBox="0 0 24 24" fill="none" xmlns="http://www.w3.org/2000/svg">
<g clip-path="url(#clip0_147_2159)">
<path d="M4.58997 6.89C5.28997 6.18 5.98997 5.54 6.29997 5.67C6.79997 5.87 6.29997 6.7 5.99997 7.19C5.74997 7.61 3.13997 11.08 3.13997 13.5C3.13997 14.78 3.61997 15.84 4.47997 16.48C5.22997 17.04 6.21997 17.21 7.11997 16.94C8.18997 16.63 9.06997 15.54 10.18 14.17C11.39 12.68 13.01 10.73 14.26 10.73C15.89 10.73 15.91 11.74 16.02 12.52C12.24 13.16 10.64 16.19 10.64 17.89C10.64 19.59 12.08 20.98 13.85 20.98C15.48 20.98 18.14 19.65 18.54 14.88H21V12.38H18.53C18.38 10.73 17.44 8.18 14.5 8.18C12.25 8.18 10.32 10.09 9.55997 11.02C8.97997 11.75 7.49997 13.5 7.26997 13.74C7.01997 14.04 6.58997 14.58 6.15997 14.58C5.70997 14.58 5.43997 13.75 5.79997 12.66C6.14997 11.57 7.19997 9.8 7.64997 9.14C8.42997 8 8.94997 7.22 8.94997 5.86C8.94997 3.69 7.30997 3 6.43997 3C5.11997 3 3.96997 4 3.71997 4.25C3.35997 4.61 3.05997 4.91 2.83997 5.18L4.58997 6.89ZM13.88 18.55C13.57 18.55 13.14 18.29 13.14 17.83C13.14 17.23 13.87 15.63 16.01 15.07C15.71 17.76 14.58 18.55 13.88 18.55Z" fill="#323232"/>
</g>
<defs>
<clipPath id="clip0_147_2159">
<rect width="24" height="24" fill="white"/>
</clipPath>
</defs>
</svg>

<svg xmlns="http://www.w3.org/2000/svg" height="24" viewBox="0 0 24 24" width="24"><path d="M0 0h24v24H0z" fill="none"/><path d="M4.59 6.89c.7-.71 1.4-1.35 1.71-1.22.5.2 0 1.03-.3 1.52-.25.42-2.86 3.89-2.86 6.31 0 1.28.48 2.34 1.34 2.98.75.56 1.74.73 2.64.46 1.07-.31 1.95-1.4 3.06-2.77 1.21-1.49 2.83-3.44 4.08-3.44 1.63 0 1.65 1.01 1.76 1.79-3.78.64-5.38 3.67-5.38 5.37 0 1.7 1.44 3.09 3.21 3.09 1.63 0 4.29-1.33 4.69-6.1H21v-2.5h-2.47c-.15-1.65-1.09-4.2-4.03-4.2-2.25 0-4.18 1.91-4.94 2.84-.58.73-2.06 2.48-2.29 2.72-.25.3-.68.84-1.11.84-.45 0-.72-.83-.36-1.92.35-1.09 1.4-2.86 1.85-3.52.78-1.14 1.3-1.92 1.3-3.28C8.95 3.69 7.31 3 6.44 3 5.12 3 3.97 4 3.72 4.25c-.36.36-.66.66-.88.93l1.75 1.71zm9.29 11.66c-.31 0-.74-.26-.74-.72 0-.6.73-2.2 2.87-2.76-.3 2.69-1.43 3.48-2.13 3.48z"/></svg>
